packages/core/src/svgs/forth.svg

<svg width="24" height="24" viewBox="0 0 24 24" fill="none" xmlns="http://www.w3.org/2000/svg">
<g clip-path="url(#clip0_31_10450)">
<path d="M0 0H24V24H0V0Z" fill="#F0F3FA"/>
<path d="M6 17.1429V16.5601C6.20143 16.5001 6.47143 16.5172 6.68571 16.4529L6.82714 16.4015C7.04143 16.3158 7.23857 16.1701 7.38429 15.9901C7.48714 15.8615 7.57286 15.7201 7.65 15.5701C7.75714 15.3686 7.85143 15.1586 7.93714 14.9486C8.10857 14.5201 8.28 14.0915 8.44286 13.6586L10.1786 9.21007C10.7357 7.77007 11.25 6.33864 11.8157 4.90293C12.0086 4.84721 12.18 4.77007 12.3729 4.71436C12.63 5.36578 12.8829 6.03436 13.1143 6.69436C13.8771 8.85436 14.64 11.0101 15.42 13.1572C15.6343 13.7444 15.8486 14.3315 16.0714 14.9186C16.1952 15.2601 16.3516 15.5887 16.5386 15.9001C16.7183 16.1862 17.0003 16.3931 17.3271 16.4786C17.55 16.5344 17.7729 16.5686 17.9957 16.6072V17.1429H13.2857V16.6029C13.2857 16.6029 13.3029 16.5858 13.3414 16.5815C13.5257 16.5558 13.9329 16.5215 14.1129 16.4744C14.2223 16.4413 14.3284 16.3982 14.43 16.3458C14.6057 16.2472 14.6786 16.0886 14.6614 15.8872C14.6542 15.7959 14.6384 15.7055 14.6143 15.6172C14.5757 15.4801 14.5286 15.3429 14.4857 15.2144C13.5514 12.5829 12.6343 9.9515 11.7214 7.3115C11.7129 7.2815 11.7086 7.2515 11.6786 7.22578L11.6529 7.24293C11.6448 7.25614 11.639 7.27063 11.6357 7.28578C11.19 8.58436 10.7143 9.87007 10.2471 11.1558C9.89305 12.1055 9.55159 13.0599 9.22286 14.0186C9.09429 14.4044 8.96571 14.7901 8.84571 15.1801C8.80286 15.3301 8.76429 15.4801 8.74286 15.6344C8.72584 15.7378 8.72296 15.843 8.73429 15.9472C8.74714 16.0844 8.82 16.2044 8.93143 16.2901C9.16714 16.4615 10.0329 16.5601 10.2857 16.6201V17.1429H6Z" fill="black"/>
</g>
<defs>
<clipPath id="clip0_31_10450">
<rect width="24" height="24" fill="white"/>
</clipPath>
</defs>
</svg>

<svg xmlns="http://www.w3.org/2000/svg" width="24" height="24" fill="none" viewBox="0 0 24 24"><g clip-path="url(#a)"><path fill="#F0F3FA" d="M0 0h24v24H0z"/><path fill="#000" d="M6 17.143v-.583c.201-.06.471-.043.686-.107l.141-.052c.214-.085.412-.23.557-.41q.152-.195.266-.42c.107-.202.201-.412.287-.622q.26-.642.506-1.29l1.736-4.449c.557-1.44 1.071-2.871 1.637-4.307.193-.056.364-.133.557-.189.257.652.51 1.32.741 1.98.763 2.16 1.526 4.316 2.306 6.463q.32.881.651 1.762.186.513.468.981c.18.286.461.493.788.579.223.055.446.09.669.128v.536h-4.71v-.54s.017-.017.055-.022c.185-.025.592-.06.772-.107q.165-.05.317-.128c.176-.099.249-.257.231-.459a1.5 1.5 0 0 0-.047-.27c-.038-.137-.085-.274-.128-.403-.935-2.631-1.852-5.263-2.765-7.903-.008-.03-.012-.06-.042-.085l-.026.017a.1.1 0 0 0-.017.043c-.446 1.298-.922 2.584-1.389 3.87q-.53 1.425-1.024 2.863-.195.577-.377 1.161c-.043.15-.082.3-.103.454q-.025.156-.009.313a.5.5 0 0 0 .197.343c.236.172 1.102.27 1.355.33v.523z"/></g><defs><clipPath id="a"><path fill="#fff" d="M0 0h24v24H0z"/></clipPath></defs></svg>
